X: 33196
T: Promisory Notes, The
R: reel
M: 4/4
K: Fmajor
Ffec BGEG|FA A/A/A cAFC|B,D D/D/D CA,FC|DGGF GBAG|
Ffec ~B2GB|Acfg fcAc|B/B/B df ec c/c/c|1 (3fga ge fcAG:|2 (3fga ge fcAc||
|:BFBd fbag|af f/f/f cafc|ge e/e/e cgec|fcfg afcA|
BFBd fbag|af f/f/f cAFC|B,DFB AFcA|1 Gcde fcAc:|2 Gcde fcAG||

